X:1
T:The Well-Tempered Clavier Part II Fuga XVI
T:BWV 885
T:J. S. Bach
%%score { ( 1 3 ) | ( 2 4 ) }
L:1/8
M:3/4
K:Bb
V:1 treble nm="Harp"
V:3 treble 
V:2 bass 
V:4 bass 
V:1
 z6 | z6 | z6 | z6 | z2 G2 z F | B2 G2 z =E | A2 F2 z D | GG GG GG | z2 d2 z B | e2 c2 z A | %10
 d2 B2 z G | cc cc cc | cB/A/ B/G/B/c/ d/^c/d | dG z/ G/A/B/ c/B/c | cF z/ F/G/A/ B/A/B- | %15
 B/A/B/A/ G/F/G/F/ =E/D/E/D/ | ^CA Dc =B/d/f | e2 z2 z z/ a/ | b>a g/^f/g/f/ g2- | g2 ^f>a d>c | %20
 B4 A2- | A/A/B/A/ G>^F G2- | G>B A>c ^F>A | D>^F G z z z/ B/- | B/B/A/G/ A/A/=B/c/ d/c/d | %25
 dc/=B/ c2 z z/ c/- | c/c/B/A/ B/d/=e/f/ g/f/g- | gf/=e/ f/d/f/g/ a/g/a | ad z/ d/=e/f/ g/f/g | %29
 gc z/ c/d/=e/ f/e/f- | f>f =e/d/e/d/ ^c/d/e- | ed f2 z d | g2 e2 z c | f2 d2 z B | ee ee ee- | %35
 ed/e/ f/B/f/g/ a/g/a | ad z/ d/=e/f/ g/f/g | gc z/ c/d/=e/ f/e/f- | f/d/=e/f/ g/a/b/g/ f/e/d/c/ | %39
 fc fe/d/ ec | dG gf/e/ fd | ec _ag/f/ ge | f4- f/e/d/c/ | =Bd- d/G/c- c/c/B | c2 z/ B/A/G/ A2- | %45
 A/G/A/B/ G4- | G/F/G/A/ F4- | F>A G>F B>A | G2 GF z2 | z6 | z2 e2 z c | f2 d2 z B | e2 c2 z _A | %53
 dd dd dd | d/c/d/c/ =B/A/B/A/ G2- | G2- G/G/A/=B/ c2- | c=B/A/ B2 ^A2- | A=A/G/ A2 ^G2- | %58
 G=G/F/ G/f/g/_a/ b/a/b | be z/ e/f/g/ _a/g/a | _ad z/ d/e/f/ g/f/g- | gb _ag fe | dd ef g2- | %63
 g/f/g/f/ e/d/e/d/ c/B/c/B/ | A3 B c2- | c2 B2- B/B/A/G/ | ^F z z2 z2 | z6 | z2 d2 z B | %69
 e2 c2 z A | d2 B2 z G | cc cc cc | c2 z d B2 | z c BA AG | G2 z/ A/B/c/ d/c/d/e/ | %75
 A2 z/ B/c/d/ e/d/e/f/ | =B/G/A/B/ c/B/c cc | c2 z ^f g2 | z/ b/a/g/ ^f/=e/d/c/ B/A/G/^F/ | G6- | %80
 G6- | G z/ dcB=AG/ | ^Fc/d/4e/4 d G2 F | !fermata!G2 z2 z2 |] %84
V:2
 z2 D2 z B, | E2 C2 z A, | D2 B,2 z G, | CC CC CC | CB,/A,/ B,/G,/B,/C/ D/^C/D | %5
 DG, z/ G,/A,/B,/ C/B,/C | CF, z/ F,/G,/A,/ B,/A,/B,- | B,/A,/B,/A,/ G,/F,/G,/F,/ =E,/D,/E,/D,/ | %8
 ^C,A, D,C B,G, | C/B,/C/B,/ A,>G, A,F, | B,/A,/B,/A,/ G,A,/B,/ C>B, | A,2 z G, ^F,=E, | %12
 D,^F, z D/=E/ F/E/F | D2- DC/B,/ A,G, | C2- CB,/A,/ G,F, | B,2 z2 z2 | %16
 G,F,/=E,/ F,/D,/_E,/F,/ G,/F,/G, | C,/=B,,/C,/D,/ E,/C,/D,/E,/ F,/E,/F, | %18
 B,,/F,/G,/A,/ A,/G,/A, z/ =E,/^F,/G,/ | z2 D2 z B, | E2 C2 z A, | D2 B,2 z G, | %22
[I:staff -1] CC CC CC- | CB,/A,/ B,/G,/A,/B,/ C/B,/C- | %24
 CF/=E/ F[I:staff +1] z z z/[I:staff -1] F/- | F/F/E/D/ E/C/^F/G/ A/G/A | %26
 AG/^F/ G[I:staff +1] z z z/ ^C/ | D/^C/D/A,/ D,D/=E/ FD | G/G,/A,/B,/ C/G,/C/D/ =EC | %29
 F/F,/G,/A,/ B,/F,/B,/C/ D/C/B,/A,/ | B,/D/^C/D/ G,/B,/A,/B,/ =E,/=E/C/A,/ | %31
 D/D,/F,/A,/ D/C/D/C/ B,/D/G,/B,/ | E,/G,/A,/B,/ C/B,/C/B,/ A,/D/F,/A,/ | %33
 D,/F,/G,/A,/ B,/A,/B,/A,/ G,/B,/E,/G,/ | C,/G,/A,/B,/ C/D/C/B,/ A,/F,/G,/A,/ | %35
 B,/A,/B,/C/ D/C/D/=E/ F/G/F- | F2 D2 =E2- | E2 C2 D2- | D4 C2- | C2 z2 z2 | z6 | z6 | z6 | z6 | %44
 z2 C2 z A, | D2 B,2 z G, | C2 A,2 z F, | B,B, B,B, B,B, | B,A,/G,/ A,/G,/A,/=B,/ C/B,/C- | %49
 C=B,/A,/ G,/D,/G,/A,/ B,/C/D- | DC z/ G,/A,/=B,/ C/B,/C | CF, z/ F,/G,/_A,/ B,/A,/B, | %52
 B,E, z/ E,/F,/G,/ _A,/G,/A,- | A,/G,/_A,/G,/ F,/E,/F,/E,/ D,/C,/D,/C,/ | =B,,=B, B,B, CD- | %55
 DG, C2- CF | D4 ^C2 | C4 _C2 | B,2 D2 z B, | E2 C2 z _A, | D2 B,2 z G, | CC CC CC | %62
 D/C/D/C/ B,/_A,/B,/A,/ G,/F,/G,/F,/ | E,E EE EE | E/D/E/D/ C/B,/C/B,/ A,/G,/A,/G,/ | %65
 ^F,A, B,F, G,2 | A, z D2 z B, | E2 C2 z A, | D2 B,2 z G, | C2 A,2 z F, | B,2 G,2 z B, | %71
 A,G, ^DE EE |[I:staff -1] D2[I:staff +1] z[I:staff -1] D D2 |[I:staff +1] z[I:staff -1] E D2 C2 | %74
 B,2[I:staff +1] z2 z/ A,/B,/C/ | D/^C/D- DA,/=B,/ =C/B,/C | D z/ z z D/ C/B,/C/B,/ | A,2 z C D2 | %78
 z2 z/ A,/B,/C/ D2- | D/G,/A,/=B,/ C/B,/C C2 | z/ A,/=B,/C/ D/C/D D2- | DF ED CB, | %82
 A, z z B, A,/B,/C- | C!fermata!=B, z2 z2 |] %84
V:3
 x6 | x6 | x6 | x6 | x6 | x6 | x6 | x6 | GF/=E/ F/D/E/^F/ G/E/G | %9
 G[I:staff +1]C[I:staff -1] z/[I:staff +1] C/[I:staff -1]D/E/ F/E/F | %10
 F[I:staff +1]B,[I:staff -1] z/[I:staff +1] B,/[I:staff -1]C/D/ E/D/E- | %11
 E/D/E/D/[I:staff +1] C/B,/C/B,/ A,/G,/A,/G,/ | ^F,[I:staff -1] D2 G z z/ A/- | %13
 A/A/G/F/ =E2 z z/ G/- | G/G/F/=E/ D2 z z/ F/ | =E>F E>D ^C>D | A,2 z2 z z/ d/- | dG CB A/c/e- | %18
 ed z2 z z/ d/ | c/B/c/B/ c>c B/A/B/A/ | G/F/G/F/ F/4E/4F/4E/4F/4E/4D/ C2 | F2 D2 z2 | x6 | x6 | %24
 x6 | x6 | x6 | z2 A2 z F | B2 G2 z =E | A2 F2 z D | GG GG GG | GF z/ A/B/c/ d/c/d | %32
 dG z/ G/A/B/ c/B/c | cF z/ F/G/A/ B/A/B- | B>B A/G/A/G/ F2- | F2 z2 z z/ c/ | %36
 B/c/B/A/ G2 z z/ B/ | A/B/A/G/ F2 z z/ A/ | G6 | F2 z2 z/ G/A/G/ | FD z2 z/ A/=B/A/ | %41
 GE z2 z/ =B/c/B/ | _A/G/A A/G/ A3- | A/_A/G/F/ E>E D>F- | F/F/E/D/ E2 z C | F2 D2 z B, | %46
 E2 C2 z A, | DD DD DD | DC C z z z/ F/ | ED z2 z z/ G/ | FE/F/ G2 z E | _A2 F2 z D | G2 E2 z C | %53
 FF FF FF | FF FF z/ F/G/F/- | F/E/F/E/ E2- E_A | F2 z/ _A/G/F/ =E/F/E/F/ | %57
 =E2 z/ G/F/_E/ D/E/D/E/ | D2 z/ d/e/f/ g/f/g | gc z/ c/d/e/ f/e/f | fB z/ B/c/d/ e/d/e- | %61
 e/_d/e/d/ c/B/c/B/ _A/G/A/G/ | FF G>_A B=B | c/d/e/d/ c/B/c/B/ _A/G/A/G/ | ^F3 G A2- | %65
 A/D/E/D/- D/D/E/D/ C^C | D z z/ A/B/c/ d/c/d | dG z/ G/A/B/ c/B/c | c^F z/ F/G/A/ B/A/B | %69
 BE z/ =E/F/G/ A/G/A | AD z/ D/=E/^F/ G/F/G- | GB AG ^FG | A2 z ^F G2 | z A G2 ^F2 | D2 z2 z2 | %75
 z/ =E/F/G/ A/G/A- A_A | G z z z/ _B/ A/G/A/G/ | ^F2 z A B2 | x6 | z/ =B,/C/D/ E/D/E E2 | %80
 z/ C/D/E/ F/E/F F2- | F_A GF E2 | D z z E D2 | !fermata!D2 z2 z2 |] %84
V:4
 x6 | x6 | x6 | x6 | x6 | x6 | x6 | x6 | x6 | x6 | x6 | x6 | x6 | B,2 G,2 z =E, | A,2 F,2 z D, | %15
 G,G, G,G, G, z | x6 | x6 | x6 | A,/G,/A, z/ D,/=E,/^F,/ G,/F,/G, | G,C, z/ C,/D,/E,/ F,/E,/F, | %21
 F,B,, z/ B,,/C,/D,/ E,/D,/E,- | E,/D,/E,/D,/ C,/B,,/C,/B,,/ A,,/G,,/A,,/G,,/ | %23
 ^F,,D, G,,F, =E,C, | F,A, D,C =B,G, | CG, C,A, ^F,D, | G,B, =E,D ^CA, | D/ z/ z z2 z2 | x6 | x6 | %30
 x6 | x6 | x6 | x6 | x6 | z2 B,2 z A, | D2 B,2 z G, | C2 A,2 z F, | B,B, B,B, B,B, | %39
 B,A,/G,/ A,/F,/A,/=B,/ C/_B,/C- | C/C/=B,/A,/ B,/G,/B,/C/ D/C/D/ z/ | %41
 D/G,/C/=B,/ C/G,/C/D/ E/D/E- | E>E D>C B,>D | G,=B, CA, F,G, | C,2 z/ C,/D,/E,/ F,/E,/F, | %45
 F,B,, z/ B,,/C,/D,/ E,/D,/E, | E,A,, z/ A,,/B,,/C,/ D,/C,/D,- | %47
 D,/C,/D,/C,/ B,,/A,,/B,,/A,,/ G,,/F,,/G,,/F,,/ | =E,,/C,,/D,,/E,,/ F,,/C,,/F,,/G,,/ _A,,D,, | %49
 G,,/^F,,/G,,/A,,/ =B,,/A,,/B,,/D,/ G,B,, | C,/C/G,/E,/ C,2 z z/ _A,/- | A,/D,B,/ B,2 z z/ G,/- | %52
 G,/C,G,/ _A,2 z z/ F,/ | B,,2 z D, F,,_A,, | G,,G, G,G, A,=B, | E,2- E,/E,/F,/G,/ _A,/G,/A, | %56
 _A,D, z/ D,/E,/F,/ G,/F,/G, | G,C, z/ C,/D,/E,/ F,/E,/F, | F,B,, B,2 z G, | C2 _A,2 z F, | %60
 B,2 G,2 z E, | _A,A, A,A, A,A, | B,_A, G,F, E,D, | C,C CC CC | CB, A,G, ^F,=E, | D,^F, G,D, E,2 | %66
 D,D,, z2 z2 | x6 | z2 z/ D,/=E,/^F,/ G,/F,/G, | G,C, z/ C,/D,/=E,/ F,/E,/F, | %70
 F,B,, z/ B,,/C,/D,/ E,/D,/E,- | E,/D,/E,/D,/ C,/B,,/C,/B,,/ A,,/G,,/A,,/G,,/ | ^F,,2 z D,, G,,2 | %73
 z C, D,2 D,,2 | G,,/D,/=E,/^F,/ G,/F,/G, G,2- | G,F, F,4- | F,/=B,,/C,/D,/ E,/D,/E, E,2- | %77
 E,2 z E, D,2 | z ^C, D,2 z/ B,,/=C,/D,/ | E,2 C,2 z/ A,,/=B,,/C,/ | D,2 =B,,2 z/ G,,/A,,/_B,,/ | %81
 C,C, C,C, C,C, | C,B,,/A,,/ B,,C, D,D,, | !fermata!G,,2 z2 z2 |] %84

